fs/bot_24_filled.svg

<svg viewBox="0 0 24 24" fill="none" xmlns="http://www.w3.org/2000/svg" height="1em" width="1em">
  <path d="M17.7534 13.9994C18.9961 13.9994 20.0034 15.0068 20.0034 16.2494V17.1545C20.0034 18.2482 19.526 19.2874 18.6961 19.9998C17.1307 21.3437 14.8904 22.0006 12.0004 22.0006C9.11087 22.0006 6.87205 21.344 5.30918 20.0003C4.48056 19.2879 4.00391 18.2495 4.00391 17.1567V16.2494C4.00391 15.0068 5.01127 13.9994 6.25391 13.9994H17.7534ZM11.8989 2.00685L12.0007 2C12.3804 2 12.6942 2.28215 12.7438 2.64823L12.7507 2.75L12.7499 3.499L16.2504 3.49951C17.493 3.49951 18.5004 4.50687 18.5004 5.74951V10.2541C18.5004 11.4967 17.493 12.5041 16.2504 12.5041H7.75036C6.50772 12.5041 5.50036 11.4967 5.50036 10.2541V5.74951C5.50036 4.50687 6.50772 3.49951 7.75036 3.49951L11.2499 3.499L11.2507 2.75C11.2507 2.3703 11.5328 2.05651 11.8989 2.00685L12.0007 2L11.8989 2.00685ZM9.74965 6.49951C9.05969 6.49951 8.50036 7.05883 8.50036 7.74879C8.50036 8.43876 9.05969 8.99808 9.74965 8.99808C10.4396 8.99808 10.9989 8.43876 10.9989 7.74879C10.9989 7.05883 10.4396 6.49951 9.74965 6.49951ZM14.2424 6.49951C13.5524 6.49951 12.9931 7.05883 12.9931 7.74879C12.9931 8.43876 13.5524 8.99808 14.2424 8.99808C14.9324 8.99808 15.4917 8.43876 15.4917 7.74879C15.4917 7.05883 14.9324 6.49951 14.2424 6.49951Z" fill="#212121"/>
</svg>

<svg viewBox="0 0 24 24" fill="none" xmlns="http://www.w3.org/2000/svg" height="1em" width="1em">
  <path d="M17.753 14a2.25 2.25 0 0 1 2.25 2.25v.904A3.75 3.75 0 0 1 18.696 20c-1.565 1.344-3.806 2-6.696 2-2.89 0-5.128-.656-6.69-2a3.75 3.75 0 0 1-1.306-2.843v-.908A2.25 2.25 0 0 1 6.254 14h11.5ZM11.9 2.006 12 2a.75.75 0 0 1 .743.648l.007.102-.001.749h3.5a2.25 2.25 0 0 1 2.25 2.25v4.505a2.25 2.25 0 0 1-2.25 2.25h-8.5a2.25 2.25 0 0 1-2.25-2.25V5.75A2.25 2.25 0 0 1 7.75 3.5l3.5-.001V2.75a.75.75 0 0 1 .649-.743L12 2l-.102.007ZM9.749 6.5a1.25 1.25 0 1 0 0 2.498 1.25 1.25 0 0 0 0-2.498Zm4.493 0a1.25 1.25 0 1 0 0 2.498 1.25 1.25 0 0 0 0-2.498Z" fill="#212121"/>
</svg>
